X: 1772
T: Durang's Hornpipe #2
R: hornpipe, reel
%S: s:3 b:14(7+7)
B: O'Neill's 1850 #1772
Z: Bob Safranek, rjs@gsp.org
Z: Compacted via repeats and multiple endings [JC]
M: C|
L: 1/8
K: D
A2 |: DAFA DAFA | BcdB BAFA |[1,3 DAFA DAFA | A,ECE A,ECE :|[2,4 fgaf bgec | d2 d2 d2 :: A2 | defe dcBA |
| Bcdc BAGF | E2(gf) edcB | Acec dBA^G || A^GAB cBcd | e^def gfge | fgaf bgec | d2 d2 d2 :|
